src/images/characters/Zero_1.svg

<?xml version="1.0" encoding="UTF-8"?><svg id="a" xmlns="http://www.w3.org/2000/svg" xmlns:xlink="http://www.w3.org/1999/xlink" viewBox="0 0 150 150"><defs><style>.c,.d{fill:none;}.d{stroke-linecap:round;}.d,.e{stroke:#ce7328;stroke-linejoin:round;}.f{fill:#fff;}.g{fill:#ce7328;}.e{fill:#fcee20;stroke-width:1.36px;}.h{clip-path:url(#b);}</style><clipPath id="b"><rect class="c" width="150" height="150"/></clipPath></defs><g class="h"><g><path class="e" d="M119.52,49.88l-12.98-11.24-11.37,13.13c-10.54-18.79-25.7-30.07-42.04-28.9C24.88,24.89,5.4,63.21,8.77,110.11c.88,12.19,3.21,23.58,6.66,33.74L-1.26,163.11l12.98,11.24,11.37-13.13c10.54,18.79,25.7,30.07,42.04,28.9,28.24-2.03,47.73-40.35,44.36-87.25-.88-12.19-3.21-23.58-6.66-33.73l16.68-19.27ZM25.9,108.88c-2.26-31.46,8.87-67.48,28.46-68.89,11.36-.82,21.55,10.3,28.57,25.91l-53.97,62.32c-1.54-6.34-2.6-12.89-3.06-19.34Zm66.47-4.77c2.26,31.46-8.87,67.48-28.46,68.89-11.36,.82-21.55-10.3-28.57-25.91l53.97-62.32c1.54,6.34,2.6,12.89,3.06,19.34Z"/><path class="g" d="M72.47,126.04c.1,1.35,.05,2.63-.1,3.77-2.41-.59-3.84,.01-6.22,1.19-.44-1.27-.75-2.8-.87-4.44-.34-4.67,1-8.57,2.99-8.72,1.99-.14,3.87,3.53,4.2,8.2Z"/><ellipse class="g" cx="78.57" cy="121.78" rx="3.61" ry="8.48" transform="translate(-8.52 5.94) rotate(-4.11)"/><ellipse class="f" cx="79.88" cy="118.75" rx="1.21" ry="2.28" transform="translate(-15.23 11.81) rotate(-7.72)"/><ellipse class="f" cx="70.14" cy="122.89" rx="1.21" ry="2.28" transform="translate(-18.31 12.45) rotate(-8.98)"/><path class="d" d="M54.47,131.11s9.5,13.19,31.4,.08"/><path class="d" d="M64.81,131.94s4.34-4.29,8.7-1.82"/></g></g></svg>

<svg id="Layer_1" data-name="Layer 1" xmlns="http://www.w3.org/2000/svg" xmlns:xlink="http://www.w3.org/1999/xlink" viewBox="0 0 150 150"><defs><style>.cls-1,.cls-6{fill:none;}.cls-2{clip-path:url(#clip-path);}.cls-3{fill:#fcee20;stroke-width:1.36px;}.cls-3,.cls-6{stroke:#ce7328;stroke-linejoin:round;}.cls-4{fill:#ce7328;}.cls-5{fill:#fff;}.cls-6{stroke-linecap:round;}</style><clipPath id="clip-path"><rect class="cls-1" width="150" height="150"/></clipPath></defs><g class="cls-2"><path class="cls-3" d="M119.52,49.88l-13-11.25L95.17,51.76c-10.54-18.79-25.7-30.07-42-28.9-28.25,2-47.73,40.35-44.36,87.25a135.06,135.06,0,0,0,6.65,33.73L-1.26,163.11l13,11.25,11.37-13.13C33.63,180,48.8,191.3,65.14,190.13c28.24-2,47.73-40.35,44.36-87.25a135.59,135.59,0,0,0-6.66-33.74Zm-93.62,59C23.64,77.42,34.77,41.4,54.36,40c11.35-.82,21.55,10.3,28.56,25.91L29,128.22A117,117,0,0,1,25.9,108.88Zm66.47-4.77c2.26,31.45-8.88,67.48-28.46,68.89-11.36.81-21.56-10.3-28.57-25.91l54-62.32A118.11,118.11,0,0,1,92.37,104.11Z"/><path class="cls-4" d="M72.47,126a18.66,18.66,0,0,1-.11,3.78c-2.41-.59-3.84,0-6.22,1.18a17.74,17.74,0,0,1-.87-4.44c-.33-4.67,1-8.58,3-8.72S72.13,121.37,72.47,126Z"/><ellipse class="cls-4" cx="78.57" cy="121.78" rx="3.61" ry="8.48" transform="matrix(1, -0.07, 0.07, 1, -8.52, 5.94)"/><ellipse class="cls-5" cx="79.88" cy="118.75" rx="1.21" ry="2.28" transform="translate(-15.23 11.81) rotate(-7.72)"/><ellipse class="cls-5" cx="70.14" cy="122.89" rx="1.21" ry="2.28" transform="translate(-18.31 12.45) rotate(-8.98)"/><path class="cls-6" d="M54.47,131.11s9.5,13.19,31.4.08"/><path class="cls-6" d="M64.81,131.94s4.34-4.29,8.7-1.82"/></g></svg>
